!!!OTL: 647. Die Liebe verwelket nicht.
!!!ARE: Europa, Mitteleuropa, Deutschland, Hessen, Kreis Wetzlar, Burgsolms
!!!SCT: E0647
!!!TXL: @@DE
!!!YEM: Copyright 1995, estate of Helmut Schaffrath.
**kern	**text
*ICvox	*
*M6/8	*
*k[f#]	*
*G:	*
!LO:TX:a:t=Ziemlich langsam.	!
!LO:TX:a:t=Aus Burgſolms (Kr. Wetʒlar).	!
{8d	Die
=1	=1
4g	Ro-
8g	-ſen
4f#	und
8g	die
=2	=2
(4a	Nel-
8dd)	.
4dd}	-ken
{8dd	und
=3	=3
4cc	Flie-
8cc	-der
4b	und
8dd	Jas-
=4	=4
[4.a	-min,
8a]	.
8r}	.
{8a	die
=5	=5
4a	wer-
8cc	-den
4ee	all
8dd	der-
=6	=6
(4cc	-wel-
8b)	.
4b}	-ken
{8b	und
=7	=7
4a	wer-
8a	-den
4dd	all
8cc	ver-
=8	=8
[4.b	-blühn,
8b]	.
8r}	.
{8b	und
=9	=9
4e	wer-
8a	-den
4g	all
8f#	ver-
=10	=10
[4.g	-blühn.
8g]	.
8r}	.
==	==
!!!AGN: Liebes - Lied
!!!ONB: ESAC (Essen Associative Code) Database: ERK2
!!!AMT: compound duple
!!!AIN: vox
!!!EED: Helmut Schaffrath
!!!EEV: 1.0
!!!GTL: Liebeslieder [Neuere (aus dem 18. bis 19. Jahrh.) - Liebeslust]
!!!URL-scan: https://rosdok.uni-rostock.de/mcrviewer/recordIdentifier/rosdok_ppn745177662/iview2/phys_0459.iview2?x=48.368023684967966&y=233.2452921452932&scale=0.7029437510502773&rotation=0&layout=singlePageLayout
!!!ENC: Anna Maria Matuszewska
!!!EEV: 2024/12/12
*-	*-
